X:1
T:Title
%%score 1 { 2 | 3 }
L:1/8
Q:1/4=90
M:3/4
K:G
V:1 treble nm="Grand Piano, Soprano"
V:2 treble nm="Choir Pad, Elephant and Castle"
V:3 bass 
V:1
 G>[GA] [GB]3 [DA] | [EG]>[CE] [B,D]4 | [B,D]>[B,D] [DG]4 | [DG]2 [GB] [FA]3 | G>[GA] [GB]3 [DA] | %5
w: By~P.~J.~Goerz,~harm.~H,~J.~K.~Goerz,~1918 * * *|||||
 [EG]>[CE] [B,D]4 | [DG]>[EA] [DB]4 | [DG]2 [DA] [DG]3 | [GB]>[Gc] [Gd]3 [Gc] | [GB]>[FA] [GB]4 | %10
w: |||||
 [GB]>[Gc] [Gd]3 [Gc] | [GB]>[FA] [GB]4 | G>[GA] [GB]3 [=FA] | [EG]>[CE] [B,D]4 | [DG]>[EA] [DB]4 | %15
w: |||||
 [DG]2 [DA] [DG]3- | [DG]4 z2 |] %17
w: ||
V:2
 B,>C D3 B, | C>[K:bass]G, G,4 | G,>G, B,4 | B,2[K:treble] D D3 | B,>C D3[K:bass] B, | C>G, G,4 | %6
 G,>G, G,4 | B,2 C B,3 | G,>A, B,3[K:treble] E | D>D D4 | G,>A, B,3 E | D>D D4 | B,>C D3 D | %13
 C>[K:bass]G, G,4 | G,>G, G,4 | B,2 C B,3- | B,4 z2 |] %17
V:3
 G,>G, G,3 G, | C,>C, G,,4 | z2 G,4 | G,2 D, D,3 | G,>G, G,3 G, | C,>C, G,,4 | B,,>C, D,4 | %7
 D,2 D, G,,3 | z z/ G,/ G,3 G, | G,>D, G,4 | z z/ G,/ G,3 G, | G,>D, G,4 | G,>G, G,3 B,, | %13
 C,>C, G,,4 | B,,>C, D,4 | D,2 D, G,,3- | G,,4 z2 |] %17

